assets/features/payment-flow/Touch 'n Go eWallet.svg

<svg width="200" height="200" viewBox="0 0 200 200" fill="none" xmlns="http://www.w3.org/2000/svg">
<rect width="200" height="200" rx="40" fill="#0047BA"/>
<path d="M86.0601 102.858H79.0839C77.0354 102.858 74.3862 104.318 73.6267 106.26L74.3156 102.537H65.7854L62.0234 123.945H70.5537L72.9203 110.391H82.1041C82.1041 110.391 80.9384 117.106 80.4086 120.116C79.8965 123.126 81.9098 123.856 82.9164 123.856H87.3847L90.2987 107.203C90.0162 104.817 88.4267 102.858 86.0601 102.858Z" fill="white"/>
<path d="M59.6565 102.537L58.0493 111.727L64.531 102.537H59.6565Z" fill="white"/>
<path d="M69.7764 69H41.2363L40 76.0885H49.9608L45.9694 98.9564H54.5704L58.5617 76.0885H68.5401L69.7764 69Z" fill="#FFCD00"/>
<path d="M75.6746 91.9385L76.9285 84.7789H69.2812L68.0273 91.9385H75.6746ZM63.6298 98.9557C61.2633 98.9557 59.6738 96.9965 60.08 94.6101L62.2876 82.0896C62.6937 79.703 64.9719 77.7617 67.3386 77.7617H81.326C83.6927 77.7617 85.2822 79.703 84.8583 82.0896L82.6682 94.6101C82.2444 96.9965 79.9662 98.9557 77.5997 98.9557H63.6298Z" fill="#FFCD00"/>
<path d="M119.934 91.9385L121.188 84.7789H132.261L133.497 77.7617H119.245C116.878 77.7617 114.6 79.703 114.176 82.0896L111.986 94.6101C111.58 96.9965 113.17 98.9557 115.536 98.9557H129.4L130.619 91.9385H119.934Z" fill="#FFCD00"/>
<path d="M102.521 91.9385H93.1426L95.6153 77.7617H88.1447L85.1953 94.6101C84.7714 96.9965 86.3786 98.9557 88.7451 98.9557H96.0214C98.3881 98.9557 100.313 97.5309 101.85 95.6965C101.85 95.6965 102.68 98.1542 103.88 98.7063C105.082 99.2585 108.737 99.1337 108.737 99.1337L112.482 77.7796H105.011L102.521 91.9385Z" fill="#FFCD00"/>
<path d="M156.387 77.8702H149.411C147.362 77.8702 145.384 79.3306 144.607 81.2719L146.62 69.7666H138.761L133.657 98.9573H141.534L143.901 85.4038H152.431C152.431 85.4038 151.265 92.1182 150.735 95.1281C150.206 98.1203 152.237 98.8505 153.226 98.8505H157.023L159.937 82.1981C160.343 79.8115 158.754 77.8702 156.387 77.8702Z" fill="#FFCD00"/>
<path d="M128.376 131.068C125.197 131.068 123.042 128.432 123.607 125.226L126.557 108.395C127.104 105.19 130.177 102.554 133.374 102.554H151.176C154.355 102.554 156.509 105.19 155.944 108.395L153.013 125.226C152.448 128.432 149.392 131.068 146.195 131.068H128.376ZM144.959 123.196L147.202 110.426H134.575L132.332 123.196H144.959Z" fill="#FFCD00"/>
<path d="M111.103 123.196H98.4756L100.719 110.426H121.188L122.53 102.554H99.4999C96.3209 102.554 93.248 105.19 92.7005 108.395L89.7511 125.226C89.2036 128.432 91.3406 131.068 94.5194 131.068H112.322C115.501 131.068 118.574 128.432 119.121 125.226L120.923 114.896H112.534L111.103 123.196Z" fill="#FFCD00"/>
</svg>

<svg xmlns="http://www.w3.org/2000/svg" width="200" height="200" fill="none" viewBox="0 0 200 200"><rect width="200" height="200" fill="#0047ba" rx="40"/><path fill="#fff" d="M86.06 102.858h-6.976c-2.049 0-4.698 1.46-5.457 3.402l.689-3.723h-8.53l-3.763 21.408h8.53l2.367-13.554h9.184s-1.166 6.715-1.695 9.725c-.513 3.01 1.5 3.74 2.507 3.74h4.469l2.914-16.653c-.283-2.386-1.872-4.345-4.239-4.345m-26.403-.321-1.608 9.19 6.482-9.19z"/><path fill="#ffcd00" d="M69.776 69h-28.54L40 76.088h9.96l-3.99 22.868h8.6l3.992-22.868h9.978z"/><path fill="#ffcd00" d="m75.675 91.939 1.254-7.16H69.28l-1.254 7.16zM63.63 98.956c-2.367 0-3.956-1.96-3.55-4.346l2.208-12.52c.406-2.387 2.684-4.328 5.05-4.328h13.988c2.367 0 3.956 1.941 3.532 4.328l-2.19 12.52c-.424 2.386-2.702 4.346-5.068 4.346zm56.304-7.017 1.254-7.16h11.073l1.236-7.017h-14.252c-2.367 0-4.645 1.941-5.069 4.328l-2.19 12.52c-.406 2.386 1.184 4.346 3.55 4.346H129.4l1.219-7.017zm-17.413 0h-9.378l2.472-14.177h-7.47l-2.95 16.848c-.424 2.386 1.184 4.346 3.55 4.346h7.276c2.367 0 4.292-1.425 5.829-3.26 0 0 .83 2.458 2.03 3.01 1.202.552 4.857.428 4.857.428l3.745-21.354h-7.471zm53.866-14.069h-6.976c-2.049 0-4.027 1.46-4.804 3.402l2.013-11.505h-7.859l-5.104 29.19h7.877l2.367-13.553h8.53s-1.166 6.714-1.696 9.724c-.529 2.992 1.502 3.722 2.491 3.722h3.797l2.914-16.652c.406-2.386-1.183-4.328-3.55-4.328m-28.011 53.198c-3.179 0-5.334-2.636-4.769-5.842l2.95-16.831c.547-3.205 3.62-5.841 6.817-5.841h17.802c3.179 0 5.333 2.636 4.768 5.841l-2.931 16.831c-.565 3.206-3.621 5.842-6.818 5.842zm16.583-7.872 2.243-12.77h-12.627l-2.243 12.77zm-33.856 0H98.476l2.243-12.77h20.469l1.342-7.872H99.5c-3.18 0-6.252 2.636-6.8 5.841l-2.949 16.831c-.547 3.206 1.59 5.842 4.768 5.842h17.803c3.179 0 6.252-2.636 6.799-5.842l1.802-10.33h-8.389z"/></svg>
